src/rounded/icons/fi-rr-film.svg

<svg id="Layer_1" height="512" viewBox="0 0 24 24" width="512" xmlns="http://www.w3.org/2000/svg" data-name="Layer 1"><path d="m19 0h-14a5.006 5.006 0 0 0 -5 5v14a5.006 5.006 0 0 0 5 5h14a5.006 5.006 0 0 0 5-5v-14a5.006 5.006 0 0 0 -5-5zm1 11h2v2h-2zm0-2v-2h2v2zm-2 2h-12v-9h12zm-14 2h-2v-2h2zm0-4h-2v-2h2zm-2 6h2v2h-2zm4-2h12v9h-12zm14 2h2v2h-2zm2-10h-2v-2.816a3 3 0 0 1 2 2.816zm-18-2.816v2.816h-2a3 3 0 0 1 2-2.816zm-2 16.816h2v2.816a3 3 0 0 1 -2-2.816zm18 2.816v-2.816h2a3 3 0 0 1 -2 2.816z"/></svg>

<svg id="Layer_1" data-name="Layer 1" xmlns="http://www.w3.org/2000/svg" viewBox="0 0 24 24"><path d="M19,0H5A5.006,5.006,0,0,0,0,5V19a5.006,5.006,0,0,0,5,5H19a5.006,5.006,0,0,0,5-5V5A5.006,5.006,0,0,0,19,0Zm1,11h2v2H20Zm0-2V7h2V9Zm-2,2H6V2H18ZM4,13H2V11H4ZM4,9H2V7H4ZM2,15H4v2H2Zm4-2H18v9H6Zm14,2h2v2H20ZM22,5H20V2.184A3,3,0,0,1,22,5ZM4,2.184V5H2A3,3,0,0,1,4,2.184ZM2,19H4v2.816A3,3,0,0,1,2,19Zm18,2.816V19h2A3,3,0,0,1,20,21.816Z"/></svg>
